bps (170/120)

d1 $ stack [sound "gnarl*4?" |+| shape "0.2" |+| begin "0.5" |+| end "[0.52 0.82]*3" |+| speed (whenmod 12 8 ((*0.75) <$>) $ whenmod 8 6 ((*0.5) <$>) "[1 0.8]") |+| delay "0.5"] |+| delaytime "0.43" |+| delayfeedback "0.5"

hush
