bps (200/120)

d1 $ 
stack [
weave' 3 (sound "~ vocad/2" |+| delay "0.3" |+| shape "0.5") [(|+| speed "0.5"), (0.25 <~), density 2, (|+| speed "-1"), (|+| accelerate "-1")],
sound "~ padloop8:1" |+| end "0.05" |+| delay "0.5" ] |+| delaytime "0.4" |+| delayfeedback "0.5"

hush
