import Sound.Tidal.MIDI.Output
import Sound.Tidal.VolcaKeys

keyStreams <- keyproxy 1 "Scarlett 18i8 USB" keys [1]
[k1] <- sequence keyStreams

let rip a b p = within (0.25, 0.75) (slow 2 . rev . stut 8 a b) p
let rip' a b c d e p = within (a, b) (slow 2 . rev . stut c d e) p
let up = speed . ((1.059466**) <$>)

bps (140/120)
