bps (210/120)

d1 $ stack [
jux (0.25 <~) $ weave' 3 (sound "gnarl*4?" |+| begin "0.25" |+| end "0.27 0.8" |+| gain "0.8" |+| speed (whenmod 12 10 ((*0.5) <$>) $ whenmod 8 4 ((*1.1) <$>) "[0.5 0.82, [~ 0.25]/2]")) [(|+| coarse "4") . (0.5 <~), (|+| vowel "o a i") . (0.25 <~)] |+| delay "0.5" 
]
|+| delaytime "0.3" |+| delayfeedback "0.5"

hush
