bps (175/120)

d1 $ stack [ 
 slow 2 $ sound "[sockk sockh]*4 [socks:0 sockh sockh socks:1] [~ sockh*6 ~ ~] [socks:0 sockk sockh*2 socks:1]",
 slow 2 $ sound (samples "[sockfx sockb]/2 doru*2 c64*2 doru*2 [[peach c64:5]/2 c64] [c64]*2 [clak]*4 doru*2" (every 2 (0.25 <~) $ run 44)) |+| speed "[0.8]/3", 
 slow 2 $ sound (samples "~ drop [~ [drop sub]/2] ~" (slow 0.8 $ run 29)) |+| cut "2"]

