bps (100/120)

k7 $ stut' 2 (0.125/4) (|+| note "5") $ stut' 3 (0.125/2) (|+| note "-12") $
(|+| note "57") $
slow 4 $ mel' m9 6 scramble 4 "{0 0*2 [~ 0] [~ 0]*2 0 [~ 0]}%8"

k7 $ stut' 2 (0.125/4) (|+| note "5") $ stut' 3 (0.125/2) (|+| note "-12") $
(|+| note "57") $
slow 4 $ mel m9 6 "{0 0*2 [~ 0] [~ 0]*2 0 [~ 0]}%16"

brute silence

k7 $ note "50" |+| dur "2"

d1 $ sound "k s"

k7 silence
