brute $ stut' 2 (0.125/4) (|+| note "5") $ stut' 3 (0.125/2) (|+| note "-12") $
(|+| note "57") $
slow 4 $ mel' m9 6 scramble 4 "{0 0*2 [~ 0] [~ 0]*2 0 [~ 0]}%8"

brute $ stut' 2 (0.125/4) (|+| note "5") $ stut' 3 (0.125/2) (|+| note "-12") $
(|+| note "57") $
slow 4 $ mel m9 6 "{0 0*2 [~ 0] [~ 0]*2 0 [~ 0]}%16"
