bps (155/120)

bps (210/120)

d1 $
stack [
slow 4 $ sound "{[run heem]/2 ~ ~}%4" |+| delay "0.5" |+| speed "{0.1225}%1"]
|+| delaytime "0.4" |+| delayfeedback "0.8"


can anybody read this???

thanks for coming out

how about that Josh Gumiela guy with the freaking block of ice???
