bps (200/120)

d1 $  stack [ 
sound (samples "tite*8" (slow 0.8 $ run 24)) |+| speed "1.5" |+| cutoff (scale 0.01 0.2 $ slow 2.1 sine1) |+| resonance "0.5", 
sound "~ k" |+| speed "5", 
sound "[~ hh:13]*2" |+| gain "0", 
sound "~ [kh*2 ~]" |+| gain "0",
slow 2 $ sound "~ [~ b:0] ~ ~ ~ ~ ~ b:9/2" |+| gain "0" ]
